assets/features/networking.svg

<?xml version="1.0" encoding="UTF-8"?>
<svg width="16px" height="16px" viewBox="0 0 16 16" version="1.1" xmlns="http://www.w3.org/2000/svg" xmlns:xlink="http://www.w3.org/1999/xlink">
    <!-- Generator: Sketch 49.2 (51160) - http://www.bohemiancoding.com/sketch -->
    <title>Networking</title>
    <desc>Created with Sketch.</desc>
    <defs></defs>
    <g id="network-16px" stroke="none" stroke-width="1" fill="none" fill-rule="evenodd">
        <g id="Group-2" transform="translate(0.437500, 0.562500)" fill="#689BFF">
            <g id="Group-3">
                <path d="M7.53188259,1.4691358 C7.12605392,1.4691358 6.79706478,1.14025855 6.79706478,0.734567901 C6.79706478,0.328877252 7.12605392,0 7.53188259,0 C7.93771126,0 8.2667004,0.328877252 8.2667004,0.734567901 C8.2667004,1.14025855 7.93771126,1.4691358 7.53188259,1.4691358 Z M14.3901822,5.14197531 C13.9843535,5.14197531 13.6553644,4.81309806 13.6553644,4.40740741 C13.6553644,4.00171676 13.9843535,3.67283951 14.3901822,3.67283951 C14.7960109,3.67283951 15.125,4.00171676 15.125,4.40740741 C15.125,4.81309806 14.7960109,5.14197531 14.3901822,5.14197531 Z M14.3901822,11.0185185 C13.9843535,11.0185185 13.6553644,10.6896413 13.6553644,10.2839506 C13.6553644,9.87825997 13.9843535,9.54938272 14.3901822,9.54938272 C14.7960109,9.54938272 15.125,9.87825997 15.125,10.2839506 C15.125,10.6896413 14.7960109,11.0185185 14.3901822,11.0185185 Z M7.53188259,14.875 C7.12605392,14.875 6.79706478,14.5461227 6.79706478,14.1404321 C6.79706478,13.7347414 7.12605392,13.4058642 7.53188259,13.4058642 C7.93771126,13.4058642 8.2667004,13.7347414 8.2667004,14.1404321 C8.2667004,14.5461227 7.93771126,14.875 7.53188259,14.875 Z M0.734817814,11.0491255 C0.328989141,11.0491255 0,10.7202483 0,10.3145576 C0,9.90886696 0.328989141,9.57998971 0.734817814,9.57998971 C1.14064649,9.57998971 1.46963563,9.90886696 1.46963563,10.3145576 C1.46963563,10.7202483 1.14064649,11.0491255 0.734817814,11.0491255 Z M0.734817814,5.1725823 C0.328989141,5.1725823 0,4.84370505 0,4.4380144 C0,4.03232375 0.328989141,3.7034465 0.734817814,3.7034465 C1.14064649,3.7034465 1.46963563,4.03232375 1.46963563,4.4380144 C1.46963563,4.84370505 1.14064649,5.1725823 0.734817814,5.1725823 Z" id="Combined-Shape"></path>
                <path d="M6.30709295,7.73418332 C6.28710556,7.64357399 6.27656883,7.54941882 6.27656883,7.4528035 C6.27656883,7.35403144 6.28758123,7.25783059 6.3084456,7.16536098 L4.22815669,6.27009487 L3.25820751,7.65278069 L4.00829765,8.72205217 L6.30709295,7.73418332 Z M7.33964518,6.1737448 L7.33964518,1.8345934 L4.49762915,5.88595541 L6.48760826,6.7423561 C6.67847898,6.45025553 6.98364825,6.23956866 7.33964518,6.1737448 Z M8.84233187,7.14470237 C8.86632955,7.24347314 8.87904858,7.34665348 8.87904858,7.4528035 C8.87904858,7.55727417 8.86672881,7.65886839 8.84346236,7.75621352 L11.1570209,8.75186877 L11.9280273,7.65278069 L10.9394289,6.24350998 L8.84233187,7.14470237 Z M7.79902018,8.73488035 L7.79902018,13.5387794 L10.8875485,9.13600823 L8.65895507,8.1769183 C8.46448544,8.46650232 8.15667261,8.67365035 7.79902018,8.73488035 Z M7.33964518,8.73186219 C6.98154151,8.6656488 6.67486886,8.45285276 6.48423164,8.15805653 L4.27779967,9.10623377 L7.33964518,13.470968 L7.33964518,8.73186219 Z M7.79902018,6.17072665 C8.15501736,6.23167327 8.4616352,6.4371904 8.65624772,6.72467333 L10.6699269,5.85932837 L7.79902018,1.76678201 L7.79902018,6.17072665 Z M4.0666161,5.70046609 L7.31255084,1.07330829 L7.33964518,1.11193193 L7.33964518,0.677975109 L7.79902018,0.677975109 L7.79902018,1.17974332 L7.87368398,1.07330829 L11.1010848,5.67404549 L14.3259789,4.28820115 L14.4148798,4.49507565 L14.6088346,4.63113431 L12.4891605,7.65278069 L14.1696649,10.0483801 L14.5044799,10.1924699 L14.4156079,10.3989777 L14.4207996,10.4063786 L14.4124228,10.4063786 L14.322887,10.6144289 L11.3185615,9.32149755 L7.59311741,14.6322075 L3.84664181,9.29151666 L1.35860574,10.3607086 L1.32656837,10.4063786 L1.25233043,10.4063786 L0.825503246,10.5898004 L0.644132381,10.1677459 L1.05742482,9.99014043 L2.69707436,7.65278069 L0.577400179,4.63113431 L0.784303298,4.48599251 L0.856231654,4.31885588 L4.0666161,5.70046609 Z M3.79714364,6.08460555 L1.4493561,5.07421963 L2.97764093,7.25282631 L3.79714364,6.08460555 Z M11.588034,8.93735809 L13.3658717,9.70246233 L12.2085939,8.05273506 L11.588034,8.93735809 Z M11.3705868,6.05822709 L12.2085939,7.25282631 L13.7698846,5.02716898 L11.3705868,6.05822709 Z M3.57713978,8.90733505 L2.97764093,8.05273506 L1.86071486,9.64493997 L3.57713978,8.90733505 Z M14.3653793,4.5039159 L7.59311741,0.678737464 L0.820855502,4.5039159 L0.770122723,4.5039159 L0.770122723,10.4036427 L7.59311741,14.2574765 L14.4161121,10.4036427 L14.4161121,4.5039159 L14.3653793,4.5039159 Z M14.8848621,4.0351659 L14.8848621,10.677234 L7.59311741,14.795832 L0.301372723,10.677234 L0.301372723,4.0351659 L0.69762292,4.0351659 L7.59311741,0.140381973 L14.4886119,4.0351659 L14.8848621,4.0351659 Z" id="Combined-Shape"></path>
            </g>
        </g>
    </g>
</svg>

<?xml version="1.0" encoding="UTF-8" standalone="no"?>
<svg
   xmlns:dc="http://purl.org/dc/elements/1.1/"
   xmlns:cc="http://creativecommons.org/ns#"
   xmlns:rdf="http://www.w3.org/1999/02/22-rdf-syntax-ns#"
   xmlns:svg="http://www.w3.org/2000/svg"
   xmlns="http://www.w3.org/2000/svg"
   xmlns:sodipodi="http://sodipodi.sourceforge.net/DTD/sodipodi-0.dtd"
   xmlns:inkscape="http://www.inkscape.org/namespaces/inkscape"
   width="16px"
   height="16px"
   viewBox="0 0 16 16"
   version="1.1"
   id="svg14"
   sodipodi:docname="networking.svg"
   inkscape:version="0.92.3 (2405546, 2018-03-11)">
  <metadata
     id="metadata18">
    <rdf:RDF>
      <cc:Work
         rdf:about="">
        <dc:format>image/svg+xml</dc:format>
        <dc:type
           rdf:resource="http://purl.org/dc/dcmitype/StillImage" />
        <dc:title>Networking</dc:title>
      </cc:Work>
    </rdf:RDF>
  </metadata>
  <sodipodi:namedview
     pagecolor="#ffffff"
     bordercolor="#666666"
     borderopacity="1"
     objecttolerance="10"
     gridtolerance="10"
     guidetolerance="10"
     inkscape:pageopacity="0"
     inkscape:pageshadow="2"
     inkscape:window-width="2560"
     inkscape:window-height="1346"
     id="namedview16"
     showgrid="false"
     inkscape:zoom="14.75"
     inkscape:cx="8"
     inkscape:cy="8"
     inkscape:window-x="-11"
     inkscape:window-y="-11"
     inkscape:window-maximized="1"
     inkscape:current-layer="svg14" />
  <!-- Generator: Sketch 49.2 (51160) - http://www.bohemiancoding.com/sketch -->
  <title
     id="title2">Networking</title>
  <desc
     id="desc4">Created with Sketch.</desc>
  <defs
     id="defs6" />
  <g
     id="network-16px"
     transform="matrix(1.0578512,0,0,1.0578512,-0.4628096,-0.4628096)"
     style="fill:none;fill-rule:evenodd;stroke:none;stroke-width:1">
    <g
       id="Group-2"
       transform="translate(0.4375,0.5625)"
       style="fill:#689bff">
      <g
         id="Group-3">
        <path
           d="m 7.5318826,1.4691358 c -0.4058287,0 -0.7348178,-0.3288773 -0.7348178,-0.7345679 C 6.7970648,0.32887725 7.1260539,0 7.5318826,0 c 0.4058287,0 0.7348178,0.32887725 0.7348178,0.7345679 0,0.4056906 -0.3289891,0.7345679 -0.7348178,0.7345679 z m 6.8582994,3.6728395 c -0.405829,0 -0.734818,-0.3288772 -0.734818,-0.7345679 0,-0.4056906 0.328989,-0.7345679 0.734818,-0.7345679 0.405829,0 0.734818,0.3288773 0.734818,0.7345679 0,0.4056907 -0.328989,0.7345679 -0.734818,0.7345679 z m 0,5.8765437 c -0.405829,0 -0.734818,-0.328878 -0.734818,-0.734568 0,-0.405691 0.328989,-0.7345683 0.734818,-0.7345683 0.405829,0 0.734818,0.3288773 0.734818,0.7345683 0,0.40569 -0.328989,0.734568 -0.734818,0.734568 z M 7.5318826,14.875 c -0.4058287,0 -0.7348178,-0.328877 -0.7348178,-0.734568 0,-0.405691 0.3289891,-0.734568 0.7348178,-0.734568 0.4058287,0 0.7348178,0.328877 0.7348178,0.734568 0,0.405691 -0.3289891,0.734568 -0.7348178,0.734568 z M 0.73481781,11.049126 C 0.32898914,11.049126 0,10.720248 0,10.314558 0,9.908867 0.32898914,9.5799897 0.73481781,9.5799897 c 0.40582869,0 0.73481779,0.3288773 0.73481779,0.7345683 0,0.40569 -0.3289891,0.734568 -0.73481779,0.734568 z m 0,-5.8765437 C 0.32898914,5.1725823 0,4.843705 0,4.4380144 0,4.0323237 0.32898914,3.7034465 0.73481781,3.7034465 c 0.40582869,0 0.73481779,0.3288772 0.73481779,0.7345679 0,0.4056906 -0.3289891,0.7345679 -0.73481779,0.7345679 z"
           id="Combined-Shape"
           inkscape:connector-curvature="0" />
        <path
           d="M 6.307093,7.7341833 C 6.2871056,7.643574 6.2765688,7.5494188 6.2765688,7.4528035 c 0,-0.098772 0.011012,-0.1949729 0.031877,-0.2874425 L 4.2281567,6.2700949 3.2582075,7.6527807 4.0082976,8.7220522 Z M 7.3396452,6.1737448 V 1.8345934 L 4.4976291,5.8859554 6.4876083,6.7423561 C 6.678479,6.4502555 6.9836482,6.2395687 7.3396452,6.1737448 Z m 1.5026867,0.9709576 c 0.023998,0.098771 0.036717,0.2019511 0.036717,0.3081011 0,0.1044707 -0.01232,0.2060649 -0.035586,0.30341 L 11.157021,8.7518688 11.928027,7.6527807 10.939429,6.24351 Z M 7.7990202,8.7348803 V 13.538779 L 10.887548,9.1360082 8.6589551,8.1769183 C 8.4644854,8.4665023 8.1566726,8.6736504 7.7990202,8.7348803 Z m -0.459375,-0.00302 C 6.9815415,8.6656488 6.6748689,8.4528528 6.4842316,8.1580565 L 4.2777997,9.1062338 7.3396452,13.470968 Z m 0.459375,-2.5611356 c 0.3559972,0.060947 0.662615,0.2664638 0.8572275,0.5539467 L 10.669927,5.8593284 7.7990202,1.766782 Z M 4.0666161,5.7004661 7.3125508,1.0733083 7.3396452,1.1119319 V 0.67797511 h 0.459375 V 1.1797433 l 0.074664,-0.106435 3.2274008,4.6007372 3.224894,-1.3858444 0.0889,0.2068746 0.193955,0.1360586 -2.119674,3.0216464 1.680504,2.3955993 0.334815,0.14409 -0.08887,0.206508 0.0052,0.0074 h -0.0084 l -0.08954,0.20805 L 11.318562,9.3214976 7.5931174,14.632208 3.8466418,9.2915167 1.3586057,10.360709 1.3265684,10.406379 H 1.2523304 L 0.82550325,10.5898 0.64413238,10.167746 1.0574248,9.9901404 2.6970744,7.6527807 0.57740018,4.6311343 0.7843033,4.4859925 0.85623165,4.3188559 Z M 3.7971436,6.0846055 1.4493561,5.0742196 2.9776409,7.2528263 Z M 11.588034,8.9373581 13.365872,9.7024623 12.208594,8.0527351 Z M 11.370587,6.0582271 12.208594,7.2528263 13.769885,5.027169 Z M 3.5771398,8.9073351 2.9776409,8.0527351 1.8607149,9.64494 Z M 14.365379,4.5039159 7.5931174,0.67873746 0.8208555,4.5039159 H 0.77012272 V 10.403643 L 7.5931174,14.257476 14.416112,10.403643 V 4.5039159 Z m 0.519483,-0.46875 V 10.677234 L 7.5931174,14.795832 0.30137272,10.677234 V 4.0351659 h 0.3962502 L 7.5931174,0.14038197 14.488612,4.0351659 Z"
           id="path9"
           inkscape:connector-curvature="0" />
      </g>
    </g>
  </g>
</svg>
